myset/dist/images/logo.svg

<?xml version="1.0" encoding="UTF-8"?>
<svg width="104px" height="49px" viewBox="0 0 104 49" version="1.1" xmlns="http://www.w3.org/2000/svg" xmlns:xlink="http://www.w3.org/1999/xlink">
    <!-- Generator: Sketch 47.1 (45422) - http://www.bohemiancoding.com/sketch -->
    <title>Uhr Logo</title>
    <desc>Created with Sketch.</desc>
    <defs></defs>
    <g id="XXXX-UHR_1_Lookbook_Landing" stroke="none" stroke-width="1" fill="none" fill-rule="evenodd">
        <g id="XXXX-UHR_1.1.6_Lookbook" transform="translate(-70.000000, -40.000000)" fill="#231916">
            <g id="Top-Nav-Bar" transform="translate(70.000000, 40.000000)">
                <g id="Uhr-Logo">
                    <path d="M11.8139062,48.1524463 C9.46958718,47.5829557 7.43185236,46.6325448 5.70154168,45.3016335 C3.96871113,43.9715622 2.60714142,42.2614104 1.61515263,40.1707584 C0.622323875,38.0801063 0.125489522,35.5362976 0.125489522,32.5372324 C0.125489522,30.8489196 0.13598898,29.3382575 0.158667809,28.0081862 C0.179666726,26.6776949 0.188906249,25.4425386 0.188906249,24.3018775 C0.188906249,23.1616364 0.199405707,22.064233 0.221664558,21.0084075 C0.243083452,19.952582 0.252322975,18.8539188 0.252322975,17.7140976 C0.252322975,14.2933742 0.231324059,11.5278169 0.188906249,9.41532598 C0.146908417,7.30409496 0.0834916901,5.72077669 -8.39956641e-05,4.66495119 C0.844072429,4.74978681 1.7104877,4.82286304 2.5979019,4.88585979 C3.48405615,4.94927652 4.34921149,4.98119487 5.19462785,4.98119487 C6.0383643,4.98119487 6.90477957,4.94927652 7.79093383,4.88585979 C8.678768,4.82286304 9.54392334,4.74978681 10.3889197,4.66495119 C9.96642153,8.76183971 9.71275462,12.573143 9.62917894,16.098861 C9.54392334,19.6254189 9.50276546,23.2044742 9.50276546,26.8360267 C9.50276546,30.6792483 9.77617135,33.7837281 10.325503,36.148206 C10.8735747,38.5139439 11.6870727,40.3395897 12.7638971,41.6276632 C13.8411415,42.9161566 15.1607134,43.7716525 16.7230327,44.1928907 C18.2857721,44.6153889 20.1017583,44.827058 22.1714115,44.827058 C24.7043008,44.827058 26.6903782,44.1928907 28.1250242,42.9266561 C29.56177,41.6591615 30.6490939,39.9708487 31.3886757,37.8587777 C32.1269976,35.7475467 32.5814141,33.3293115 32.7502454,30.6053321 C32.9190767,27.8813528 33.0039123,25.0418793 33.0039123,22.0852319 C33.0039123,19.1710024 32.9614945,16.2681122 32.8770789,13.3748816 C32.7926632,10.4824909 32.6658298,7.5783408 32.4965785,4.66495119 C33.088328,4.74978681 33.6586585,4.82286304 34.2071502,4.88585979 C34.7552219,4.94927652 35.2625557,4.98119487 35.7270518,4.98119487 C36.2768034,4.98119487 36.8047161,4.94927652 37.3120499,4.88585979 C37.8177038,4.82286304 38.3447766,4.74978681 38.8941083,4.66495119 C38.8096926,5.59394324 38.725277,6.84001891 38.6408613,8.40191829 C38.5564457,9.96465762 38.4720301,11.7705644 38.3884544,13.8183787 C38.3027788,15.8670329 38.2297026,18.1256763 38.1667058,20.5959888 C38.1032891,23.0671413 38.0713707,25.6747867 38.0713707,28.419345 C38.0713707,35.7681256 36.4876325,41.0371736 33.320576,44.2243891 C30.1535195,47.4141245 25.5072993,49.0075222 19.3844354,49.0075222 C16.6810349,49.0075222 14.1582251,48.7223569 11.8139062,48.1524463" id="Fill-1"></path>
                    <path d="M47.1304291,10.9355635 C47.0455935,7.4736822 46.91918,3.96770319 46.7499287,0.419726334 C47.2980005,0.505821889 47.9955844,0.578478139 48.8405808,0.641894865 C49.6847372,0.705311591 50.5721514,0.736809966 51.5019834,0.736809966 C52.4292956,0.736809966 53.3162898,0.705311591 54.1617061,0.641894865 C55.0058626,0.578478139 55.7021866,0.505821889 56.2515183,0.419726334 C56.082267,3.96770319 55.9558535,7.4736822 55.8722778,10.9355635 C55.7866023,14.3991247 55.7454444,18.2003485 55.7454444,22.3379749 L55.8722778,22.4648084 C56.9701012,20.6912399 58.310252,19.3195907 59.8952502,18.3473409 C61.4773085,17.376771 63.2832153,16.8908561 65.3112906,16.8908561 C68.4787671,16.8908561 70.9180012,17.8093487 72.6273129,19.6463338 C74.3387246,21.482899 75.1929605,24.4504659 75.1929605,28.5465144 C75.1929605,30.7005832 75.1509627,32.6009851 75.066547,34.2477201 C74.9817114,35.8948751 74.9397136,37.5420301 74.9397136,39.1883451 C74.9397136,40.5410952 74.9712119,42.0076595 75.0346287,43.5913978 C75.0984654,45.1747161 75.1723816,46.706377 75.2567972,48.1838607 C74.7070456,48.0990251 74.0098816,48.0574473 73.1657251,48.0574473 L70.5047425,48.0574473 L67.8445998,48.0574473 C66.9996034,48.0574473 66.3020195,48.0990251 65.7539477,48.1838607 C66.0487725,45.988634 66.2390227,43.4011476 66.3246983,40.4243413 C66.407854,37.446695 66.4515317,34.037311 66.4515317,30.1932494 C66.4515317,27.5326867 65.9971152,25.5797876 65.0887021,24.3337119 C64.179869,23.0888961 62.9039749,22.4648084 61.2568199,22.4648084 C59.356418,22.4648084 57.9629299,23.2883858 57.0755157,24.9351208 C56.1876816,26.5831158 55.7454444,28.8631781 55.7454444,31.7774076 L55.7454444,34.3111368 C55.7454444,34.9028863 55.7559439,35.7579622 55.7773627,36.8767844 C55.7983617,37.9960266 55.8290201,39.2206834 55.8722778,40.5511747 C55.9134357,41.8812461 55.9671929,43.2331563 56.0306097,44.6052255 C56.0944464,45.9777146 56.1671026,47.170453 56.2515183,48.1838607 C55.7021866,48.0990251 55.0058626,48.0574473 54.1617061,48.0574473 L51.5019834,48.0574473 L48.8405808,48.0574473 C47.9955844,48.0574473 47.2980005,48.0990251 46.7499287,48.1838607 C46.91918,44.7635573 47.0455935,41.3218349 47.1304291,37.8586937 C47.2148447,34.3963924 47.2572626,30.5951687 47.2572626,26.4562823 L47.2572626,22.3379749 C47.2572626,18.2003485 47.2148447,14.3991247 47.1304291,10.9355635" id="Fill-4"></path>
                    <path d="M92.6136192,25.5694141 C93.7122825,22.6551845 95.0410939,20.5120352 96.6050932,19.139126 C98.1661526,17.7674768 100.025397,17.0803923 102.179465,17.0803923 C102.389875,17.0803923 102.569625,17.0913117 102.718718,17.1118907 C102.86655,17.1345695 103.023622,17.143809 103.192453,17.143809 C103.06604,17.7775563 102.971965,18.4533014 102.908968,19.1710444 C102.845131,19.8896273 102.812373,20.7342037 102.812373,21.7047736 L102.812373,23.7320089 L102.812373,24.8092533 C102.812373,25.1889137 102.833792,25.5484152 102.876209,25.8856578 L102.306299,26.3925716 C101.883801,26.1393247 101.408385,25.9284956 100.880473,25.7596643 C100.35214,25.591253 99.7507308,25.5059974 99.0749857,25.5059974 C97.1754238,25.5059974 95.6752612,26.1292452 94.5791178,27.3749009 C93.4800345,28.6209766 92.9307029,30.0888008 92.9307029,31.7775336 L92.9307029,34.3112628 C92.9307029,36.8874099 92.9622012,39.3157245 93.025618,41.5957868 C93.0894547,43.8766891 93.2263676,46.0731757 93.4380367,48.1839867 C92.889545,48.0991511 92.2075002,48.0571533 91.3906424,48.0571533 L88.7166404,48.0571533 L86.0753967,48.0571533 C85.277018,48.0571533 84.5869936,48.0991511 83.9994439,48.1839867 C84.1829744,46.0731757 84.3039282,43.8766891 84.3589453,41.5957868 C84.4152224,39.3157245 84.442521,36.8874099 84.442521,34.3112628 L84.442521,31.7775336 C84.442521,29.2018066 84.4152224,26.7835714 84.3589453,24.5240881 C84.3039282,22.2654446 84.1829744,19.9946219 83.9994439,17.7141396 C84.7113072,17.7993952 85.4340899,17.8728914 86.166532,17.9354682 C86.9014941,17.9988849 87.6246968,18.0308032 88.33698,18.0308032 C89.0501032,18.0308032 89.7728859,17.9988849 90.507428,17.9354682 C91.2402901,17.8728914 91.9634928,17.7993952 92.677036,17.7141396 L92.4867858,25.4425806 L92.6136192,25.5694141 Z" id="Fill-7"></path>
                </g>
            </g>
        </g>
    </g>
</svg>

<svg width="104" height="49" viewBox="0 0 104 49" version="1.1" xmlns="http://www.w3.org/2000/svg"><title>Uhr Logo</title><g id="XXXX-UHR_1_Lookbook_Landing" stroke="none" stroke-width="1" fill="none" fill-rule="evenodd"><g id="XXXX-UHR_1.1.6_Lookbook" transform="translate(-70 -40)" fill="#231916"><g id="Top-Nav-Bar" transform="translate(70 40)"><g id="Uhr-Logo"><path d="M11.814 48.152c-2.344-.569-4.382-1.52-6.112-2.85-1.733-1.33-3.095-3.04-4.087-5.131-.993-2.09-1.49-4.635-1.49-7.634 0-1.688.011-3.199.034-4.529.02-1.33.03-2.565.03-3.706 0-1.14.01-2.238.033-3.294.021-1.055.03-2.154.03-3.294 0-3.42-.02-6.186-.063-8.299-.042-2.11-.106-3.694-.19-4.75.845.085 1.711.158 2.599.22.886.064 1.751.096 2.597.096.843 0 1.71-.032 2.596-.095a89.245 89.245 0 0 0 2.598-.221c-.423 4.097-.676 7.908-.76 11.434a444.392 444.392 0 0 0-.126 10.737c0 3.843.273 6.948.823 9.312.548 2.366 1.361 4.192 2.438 5.48 1.077 1.288 2.397 2.144 3.959 2.565 1.563.422 3.379.634 5.448.634 2.533 0 4.52-.634 5.954-1.9 1.437-1.268 2.524-2.956 3.264-5.068.738-2.111 1.192-4.53 1.361-7.254.17-2.724.254-5.563.254-8.52a298.619 298.619 0 0 0-.507-17.42c.591.085 1.162.158 1.71.22.548.064 1.056.096 1.52.096.55 0 1.078-.032 1.585-.095a54.54 54.54 0 0 0 1.582-.221 107.54 107.54 0 0 0-.253 3.737 416.614 416.614 0 0 0-.253 5.416 419.57 419.57 0 0 0-.221 6.778 305.522 305.522 0 0 0-.096 7.823c0 7.35-1.583 12.618-4.75 15.805-3.167 3.19-7.814 4.784-13.937 4.784-2.703 0-5.226-.286-7.57-.856" id="Fill-1"/><path d="M47.13 10.936A454.28 454.28 0 0 0 46.75.42c.548.086 1.246.158 2.09.222a35.58 35.58 0 0 0 2.662.095c.927 0 1.814-.032 2.66-.095.844-.064 1.54-.136 2.09-.222-.17 3.548-.296 7.054-.38 10.516a464.329 464.329 0 0 0-.127 11.402l.127.127c1.098-1.774 2.438-3.145 4.023-4.118 1.582-.97 3.388-1.456 5.416-1.456 3.168 0 5.607.918 7.316 2.755 1.712 1.837 2.566 4.804 2.566 8.9 0 2.155-.042 4.055-.126 5.702a96.045 96.045 0 0 0-.127 4.94c0 1.353.031 2.82.095 4.403.063 1.584.137 3.115.222 4.593-.55-.085-1.247-.127-2.091-.127h-5.321c-.845 0-1.543.042-2.091.127.295-2.195.485-4.783.57-7.76.084-2.977.128-6.387.128-10.23 0-2.661-.455-4.614-1.363-5.86-.91-1.245-2.185-1.87-3.832-1.87-1.9 0-3.294.824-4.181 2.471-.888 1.648-1.33 3.928-1.33 6.842v2.534c0 .592.01 1.447.031 2.566.021 1.119.052 2.344.095 3.674.041 1.33.095 2.682.159 4.054.063 1.373.136 2.565.22 3.579-.549-.085-1.245-.127-2.09-.127h-5.32c-.845 0-1.543.042-2.091.127.17-3.42.296-6.862.38-10.325.085-3.463.127-7.264.127-11.403v-4.118c0-4.138-.042-7.939-.127-11.402" id="Fill-4"/><path d="M92.614 25.57c1.098-2.915 2.427-5.058 3.991-6.43 1.561-1.373 3.42-2.06 5.574-2.06.21 0 .39.011.54.032.148.023.305.032.473.032-.126.634-.22 1.31-.283 2.027a29.056 29.056 0 0 0-.097 2.534v3.104c0 .38.022.74.064 1.077l-.57.507a6.78 6.78 0 0 0-1.426-.633c-.528-.169-1.13-.254-1.805-.254-1.9 0-3.4.623-4.496 1.869-1.099 1.246-1.648 2.714-1.648 4.403v2.533c0 2.576.031 5.005.095 7.285.063 2.28.2 4.477.412 6.588-.548-.085-1.23-.127-2.047-.127h-5.316c-.798 0-1.488.042-2.076.127.184-2.11.305-4.307.36-6.588.056-2.28.084-4.709.084-7.285v-2.533c0-2.576-.028-4.994-.084-7.254-.055-2.259-.176-4.53-.36-6.81.712.085 1.435.159 2.168.221a25.24 25.24 0 0 0 2.17.096c.713 0 1.436-.032 2.17-.096a64.654 64.654 0 0 0 2.17-.22l-.19 7.728.127.126z" id="Fill-7"/></g></g></g></g></svg>
